X:82
T:Shallow Brown (a)
M:2/4
L:1/8
Q:127
K:EMix
E|A A2 E|AA E3/2||
E/|\
E3 A|c/B/A cB-|Bz F2|B B2 F|BB F2|
d2 cB|A3 E|A A2 E|A A2 E|AA E2|
